X:1
T:Hark! The Voice of Jesus Calling
T:Horatio Richmond Palmer (1834-1907)
T:Hark! The Voice of Jesus Calling
T:Public Domain
T:Public Domain
C:Horatio Richmond Palmer (1834-1907)
Z:Public Domain
%%score ( 1 2 ) ( 3 4 )
L:1/8
M:2/4
K:E
V:1 treble 
V:2 treble 
V:3 bass 
V:4 bass 
V:1
 [EG]>[EG] [EG][EG] | [EA][EG] [EG]E | [EG][DF] [DF]2 | [FA][EG] [EG]2 | [EG]>[EG] [EG][EG] | %5
w: 1.~Hark! the voice of|Je- sus call- ing,|low Me, fol-|low Me,” Soft-|ly through the si-|
w: 2.~Who will heed the|ho- ly man- date,|low Me, fol-|low Me,” Leav-|ing all things at|
w: 3.~Hearken, lest He plead|no long- er, “Fol-|Me, fol- low|Me,” Once a-|gain, O hear Him|
 [EA][EG] [EG][DF] | [CE][CE] [DF][DF] | [EG]4 | [GB]>[FA] [EG][FA] | [GB][EG] [Ac][GB] | %10
w: lence fall- ing, “Fol-|low, fol- low Me.”|As|of old He called|the fish- ers, When|
w: His bid- ding, “Fol-|low, fol- low Me.”|Hark,|that ten- der voice|en- treat- ing, Mar-|
w: call- ing, “Fol- low,|fol- low Me.” Turn-|ing|swift at Thy sweet|sum- mons, Ev- er-|
 [FA]>[EG] [DF][EG] | [FA][DF] ([GB][FA]) | [EG]>[EG] [EG][EG] | [EA][EG] [EG][DF] | %14
w: He walked by Gal-|i- lee, Still *|His pa- tient voice|is plead- ing, “Fol-|
w: i- ners on life’s|rough sea, Gent- *|ly, lov- ing- ly|re- peat- ing, “Fol-|
w: more, dear Christ, would|we For Thy *|love all else for-|sak- ing, Fol- low,|
 [CE][CE] [DF][DF] | [EG]4 |] %16
w: low, fol- low Me,”||
w: low, fol- low Me.”||
w: fol- low Thee. *||
V:2
 x4 | x3 E | x4 | x4 | x4 | x4 | x4 | x4 | x4 | x4 | x4 | x4 | x4 | x4 | x4 | x4 |] %16
w: |“Fol-|||||||||||||||
w: |“Fol-|||||||||||||||
w: |low|||||||||||||||
V:3
 [E,B,]>[E,B,] [E,B,][E,B,] | [E,C][E,B,] [E,B,][E,G,] | [B,,B,][B,,B,] [B,,B,]2 | %3
 [D,B,][E,B,] [E,B,]2 | [E,B,]>[E,B,] [E,B,][E,B,] | [E,C][E,B,] [E,B,][B,,B,] | %6
 [C,G,][C,G,] [B,,B,][B,,B,] | [E,B,]4 | E,>E, E,E, | E,E, E,E, | [B,,B,]>[B,,B,] [B,,B,][B,,B,] | %11
 [B,,B,][B,,B,] [B,,B,]2 | [E,B,]>[E,B,] [E,B,][E,B,] | [E,C][E,B,] [E,B,][B,,A,] | %14
 [C,G,][C,G,] [B,,B,][B,,B,] | [E,B,]4 |] %16
V:4
 x4 | x4 | x4 | x4 | x4 | x4 | x4 | x4 | E,>E, E,E, | E,E, E,E, | x4 | x4 | x4 | x4 | x4 | x4 |] %16

